X:1
T:Whipple's -- Hornpipe
Z:Bob Puckette <bpuckette:msn.com> 2003-3-10
R:hornpipe
B:Cole's 1000 Fiddle Tunes
M:2/4
L:1/16
K:Bb
uF2|FBBc Bdfg|fdbg gfdf|gfdB cBGA|BcBG GFFF|
FBBc Bdfg|fdbg gfdf|gfbg gfdf|gecA B2:|
|:((3uFGA)|.B2(df) bagf|dfba gfed|.e2(ed) .c2(cB)|AcBG FDEC|
B,DFB Bdcd|Bdfd gecA|Bdfb gecA|B2B2B2:|
